symbols/web/card_membership/materialsymbolssharp/card_membership_wght100_40px.svg

<svg xmlns="http://www.w3.org/2000/svg" height="40" width="40"><path d="M6.5 20.708v4.459h27v-4.459Zm9.292 12.209v-6.75H5.5V5.5h29v20.667H24.208v6.75L20 30.792ZM6.5 17.667h27V6.5h-27Zm0 7.5V6.5v18.667Z"/></svg>

<svg xmlns="http://www.w3.org/2000/svg" height="40" width="40"><path d="M6.5 20.708V25.167H33.5V20.708ZM15.792 32.917V26.167H5.5V5.5H34.5V26.167H24.208V32.917L20 30.792ZM6.5 17.667H33.5V6.5H6.5ZM6.5 25.167V6.5V25.167Z"/></svg>
